X:543
T: Sheyuan gege mangshouge
N: C1961
O: China,Hunan Jiahe
S: I, 505, 1)]
R: Xiaodiao, Fensuge, Banjiage]
M: 2/4
L: 1/16
K: G
E2EDE2ED | e3dd4 | A2d2B2AG | A3BA4 |
A2BdB2AG | BA2GE4 | G2ABG2AG | E3DE4 |
G2ABG2AG | E3DE4

@@@ Tune index: 7098
